SVG_Azure_All/Application Insights Cohort.svg

<?xml version="1.0" encoding="UTF-8" standalone="no"?>
<!-- Generated by Microsoft Visio, SVG Export Application Insights Cohort.svg Page-1 -->

<svg
   xmlns:dc="http://purl.org/dc/elements/1.1/"
   xmlns:cc="http://creativecommons.org/ns#"
   xmlns:rdf="http://www.w3.org/1999/02/22-rdf-syntax-ns#"
   xmlns:svg="http://www.w3.org/2000/svg"
   xmlns="http://www.w3.org/2000/svg"
   xmlns:sodipodi="http://sodipodi.sourceforge.net/DTD/sodipodi-0.dtd"
   xmlns:inkscape="http://www.inkscape.org/namespaces/inkscape"
   width="0.78743207in"
   height="0.78742951in"
   viewBox="0 0 56.695177 56.695212"
   xml:space="preserve"
   class="st6"
   version="1.1"
   id="svg39"
   sodipodi:docname="Application Insights Cohort.svg"
   style="font-size:12px;overflow:visible;color-interpolation-filters:sRGB;fill:none;fill-rule:evenodd;stroke-linecap:square;stroke-miterlimit:3"
   inkscape:version="0.92.5 (2060ec1f9f, 2020-04-08)"><metadata
   id="metadata45"><rdf:RDF><cc:Work
       rdf:about=""><dc:format>image/svg+xml</dc:format><dc:type
         rdf:resource="http://purl.org/dc/dcmitype/StillImage" /></cc:Work></rdf:RDF></metadata><defs
   id="defs43" /><sodipodi:namedview
   pagecolor="#ffffff"
   bordercolor="#666666"
   borderopacity="1"
   objecttolerance="10"
   gridtolerance="10"
   guidetolerance="10"
   inkscape:pageopacity="0"
   inkscape:pageshadow="2"
   inkscape:window-width="640"
   inkscape:window-height="480"
   id="namedview41"
   showgrid="false"
   inkscape:zoom="1.7193066"
   inkscape:cx="37.795072"
   inkscape:cy="23.279613"
   inkscape:window-x="0"
   inkscape:window-y="0"
   inkscape:window-maximized="0"
   inkscape:current-layer="svg39" />
	<style
   type="text/css"
   id="style2">
	<![CDATA[
		.st1 {fill:#57a300;stroke:none;stroke-linecap:butt;stroke-width:12.24}
		.st2 {fill:#804998;stroke:none;stroke-linecap:butt;stroke-width:12.24}
		.st3 {fill:#ffffff;fill-opacity:0.15;stroke:none;stroke-linecap:butt;stroke-width:12.24}
		.st4 {fill:#59b4d9;stroke:none;stroke-linecap:butt;stroke-width:12.24}
		.st5 {fill:#ffffff;fill-opacity:0.2;stroke:none;stroke-linecap:butt;stroke-width:12.24}
		.st6 {fill:none;fill-rule:evenodd;font-size:12px;overflow:visible;stroke-linecap:square;stroke-miterlimit:3}
	]]>
	</style>

	<g
   id="g37"
   transform="translate(-12.24016,-12.239087)">
		<title
   id="title4">Page-1</title>
		<g
   id="group9603-1"
   transform="translate(12.24,-34.0157)">
			<title
   id="title6">Application Insights Cohort</title>
			<g
   id="group9604-2">
				<title
   id="title8">Sheet.9604</title>
				<g
   id="shape9605-3">
					<title
   id="title10">Sheet.9605</title>
					<path
   d="m 0,92.51 v 8.7 c 0,0.96 1.12,1.74 2.5,1.74 h 51.69 c 1.38,0 2.5,-0.78 2.5,-1.74 v -8.7 z"
   class="st1"
   id="path12"
   inkscape:connector-curvature="0"
   style="fill:#57a300;stroke:none;stroke-width:12.23999977;stroke-linecap:butt" />
				</g>
				<g
   id="shape9606-5"
   transform="translate(0.0011811,-12.753)">
					<title
   id="title15">Sheet.9606</title>
					<path
   d="m 24.68,68.17 a 9.33071,9.15898 0 1 1 -18.66,0 9.33071,9.15898 0 0 1 18.66,0 z m -2.56,11.59 -6.77,9.4 -6.77,-9.4 H 0 v 23.19 H 30.71 V 79.76 Z"
   class="st2"
   id="path17"
   inkscape:connector-curvature="0"
   style="fill:#804998;stroke:none;stroke-width:12.23999977;stroke-linecap:butt" />
				</g>
				<g
   id="shape9607-7"
   transform="translate(0,-12.8689)">
					<title
   id="title20">Sheet.9607</title>
					<path
   d="m 17.32,59.33 a 9.33071,9.15898 -180 0 0 -11.3,8.95 c 0,4.93 3.97,8.93 8.93,9.14 z M 8.59,79.76 H 0 v 23.19 h 11.79 l 2.04,-15.9 z"
   class="st3"
   id="path22"
   inkscape:connector-curvature="0"
   style="fill:#ffffff;fill-opacity:0.15;stroke:none;stroke-width:12.23999977;stroke-linecap:butt" />
				</g>
				<g
   id="shape9608-9"
   transform="translate(25.9854,-12.753)">
					<title
   id="title25">Sheet.9608</title>
					<path
   d="m 24.68,68.17 a 9.33071,9.15898 0 1 1 -18.66,0 9.33071,9.15898 0 0 1 18.66,0 z m -2.56,11.59 -6.77,9.4 -6.77,-9.4 H 0 v 23.19 H 30.71 V 79.76 Z"
   class="st4"
   id="path27"
   inkscape:connector-curvature="0"
   style="fill:#59b4d9;stroke:none;stroke-width:12.23999977;stroke-linecap:butt" />
				</g>
				<g
   id="shape9609-11"
   transform="translate(25.9843,-12.753)">
					<title
   id="title30">Sheet.9609</title>
					<path
   d="m 17.32,59.22 a 9.33071,9.15898 -180 0 0 -11.3,8.95 c 0,4.92 3.97,8.93 8.93,9.14 z M 8.59,79.76 H 0 v 23.19 h 11.79 l 2.04,-15.9 z"
   class="st5"
   id="path32"
   inkscape:connector-curvature="0"
   style="fill:#ffffff;fill-opacity:0.2;stroke:none;stroke-width:12.23999977;stroke-linecap:butt" />
				</g>
			</g>
		</g>
	</g>
</svg>

<?xml version="1.0" encoding="UTF-8" standalone="no"?>
<!DOCTYPE svg PUBLIC "-//W3C//DTD SVG 1.1//EN" "http://www.w3.org/Graphics/SVG/1.1/DTD/svg11.dtd">
<!-- Generated by Microsoft Visio, SVG Export Application Insights Cohort.svg Page-1 -->
<svg xmlns="http://www.w3.org/2000/svg" xmlns:xlink="http://www.w3.org/1999/xlink" xmlns:ev="http://www.w3.org/2001/xml-events"
		width="1.1274in" height="1.42984in" viewBox="0 0 81.1729 102.949" xml:space="preserve" color-interpolation-filters="sRGB"
		class="st6">
	<style type="text/css">
	<![CDATA[
		.st1 {fill:#57a300;stroke:none;stroke-linecap:butt;stroke-width:12.24}
		.st2 {fill:#804998;stroke:none;stroke-linecap:butt;stroke-width:12.24}
		.st3 {fill:#ffffff;fill-opacity:0.15;stroke:none;stroke-linecap:butt;stroke-width:12.24}
		.st4 {fill:#59b4d9;stroke:none;stroke-linecap:butt;stroke-width:12.24}
		.st5 {fill:#ffffff;fill-opacity:0.2;stroke:none;stroke-linecap:butt;stroke-width:12.24}
		.st6 {fill:none;fill-rule:evenodd;font-size:12px;overflow:visible;stroke-linecap:square;stroke-miterlimit:3}
	]]>
	</style>

	<g>
		<title>Page-1</title>
		<g id="group9398-1" transform="translate(12.24,-34.0157)">
			<title>Application Insights Cohort</title>
			<g id="group9399-2">
				<title>Sheet.9399</title>
				<g id="shape9400-3">
					<title>Sheet.9400</title>
					<path d="M0 92.51 L0 101.21 C0 102.17 1.12 102.95 2.5 102.95 L54.19 102.95 C55.57 102.95 56.69 102.17 56.69 101.21
								 L56.69 92.51 L0 92.51 Z" class="st1"/>
				</g>
				<g id="shape9401-5" transform="translate(0.0011811,-12.753)">
					<title>Sheet.9401</title>
					<path d="M24.68 68.17 A9.33071 9.15898 0 1 1 6.02 68.17 A9.33071 9.15898 0 0 1 24.68 68.17 ZM22.12 79.76 L15.35
								 89.16 L8.58 79.76 L0 79.76 L0 102.95 L30.71 102.95 L30.71 79.76 L22.12 79.76 Z" class="st2"/>
				</g>
				<g id="shape9402-7" transform="translate(0,-12.8689)">
					<title>Sheet.9402</title>
					<path d="M17.32 59.33 A9.33071 9.15898 -180 0 0 6.02 68.28 C6.02 73.21 9.99 77.21 14.95 77.42 L17.32 59.33 ZM8.59
								 79.76 L0 79.76 L0 102.95 L11.79 102.95 L13.83 87.05 L8.59 79.76 Z" class="st3"/>
				</g>
				<g id="shape9403-9" transform="translate(25.9854,-12.753)">
					<title>Sheet.9403</title>
					<path d="M24.68 68.17 A9.33071 9.15898 0 1 1 6.02 68.17 A9.33071 9.15898 0 0 1 24.68 68.17 ZM22.12 79.76 L15.35
								 89.16 L8.58 79.76 L0 79.76 L0 102.95 L30.71 102.95 L30.71 79.76 L22.12 79.76 Z" class="st4"/>
				</g>
				<g id="shape9404-11" transform="translate(25.9843,-12.753)">
					<title>Sheet.9404</title>
					<path d="M17.32 59.22 A9.33071 9.15898 -180 0 0 6.02 68.17 C6.02 73.09 9.99 77.1 14.95 77.31 L17.32 59.22 ZM8.59
								 79.76 L0 79.76 L0 102.95 L11.79 102.95 L13.83 87.05 L8.59 79.76 Z" class="st5"/>
				</g>
			</g>
		</g>
	</g>
</svg>
